app/assets/images/pivotal_back.svg

<?xml version="1.0" encoding="UTF-8" standalone="no"?>
<svg width="254px" height="60px" viewBox="0 0 254 60" version="1.1" xmlns="http://www.w3.org/2000/svg" xmlns:xlink="http://www.w3.org/1999/xlink" xmlns:sketch="http://www.bohemiancoding.com/sketch/ns">
    <!-- Generator: Sketch 3.3.3 (12072) - http://www.bohemiancoding.com/sketch -->
    <title>Pivotal_Black_RGB</title>
    <desc>Created with Sketch.</desc>
    <defs></defs>
    <g id="Page-1" stroke="none" stroke-width="1" fill="none" fill-rule="evenodd" sketch:type="MSPage">
        <g id="v1-more-information" sketch:type="MSArtboardGroup" transform="translate(-608.000000, -124.000000)" fill="#FFFFFF">
            <g id="Use-the-video-phone--Copy-+-Group-Copy-6-+-FL-2---Suite-200" sketch:type="MSLayerGroup" transform="translate(510.000000, 44.000000)">
                <g id="Group-Copy-6" sketch:type="MSShapeGroup">
                    <g id="Pivotal_Black_RGB-Copy" transform="translate(98.000000, 80.000000)">
                        <g id="Pivotal_Black_RGB">
                            <path d="M47.6638785,15.3517448 L56.6759046,15.3517448 L56.6759046,58.696654 L47.6638785,58.696654 L47.6638785,15.3517448 Z M47.6741416,0.225083785 L56.6646152,0.225083785 L56.6646152,8.94903423 L47.6741416,8.94903423 L47.6741416,0.225083785 Z" id="Fill-1"></path>
                            <path d="M108.663626,15.3517448 L96.1139102,52.7931902 C93.9566071,58.9159108 90.1110244,59.7013237 86.9982268,59.7013237 C82.373675,59.7013237 79.5903229,57.5705181 77.9502799,52.8045133 L67.4891044,21.7101922 L63.349997,21.7101922 L63.349997,15.3517448 L74.1478022,15.3517448 L84.92816,50.1569616 C85.3992362,51.6423493 85.6896819,52.5327584 86.9982268,52.5327584 C88.3560347,52.5327584 88.6239015,51.6289674 89.0621358,50.1569616 L100.062124,15.3517448 L108.663626,15.3517448" id="Fill-2"></path>
                            <path d="M130.854496,52.5677571 C137.830324,52.5677571 142.15314,47.2767712 142.15314,40.9317057 L142.15314,34.1223921 C142.15314,27.7711503 137.868297,22.4801645 130.854496,22.4801645 C123.468145,22.4801645 119.56201,27.7711503 119.56201,34.1223921 L119.56201,40.9317057 C119.56201,47.2767712 123.638512,52.5677571 130.854496,52.5677571 M130.854496,15.3517448 C142.516454,15.3517448 150.647906,23.066908 150.647906,34.1223921 L150.647906,40.9317057 C150.647906,51.9717492 142.516454,59.7013237 130.854496,59.7013237 C119.19767,59.7013237 111.050823,51.9717492 111.050823,40.9317057 L111.050823,34.1223921 C111.050823,23.066908 119.19767,15.3517448 130.854496,15.3517448" id="Fill-3"></path>
                            <path d="M222.592221,16.7352243 C218.103142,15.5761484 211.086263,14.7361787 205.904424,14.7361787 C194.072099,14.7361787 186.729879,22.2217914 186.729879,34.2860627 L186.729879,39.0366269 C186.729879,51.0906044 194.072099,58.688419 205.904424,58.688419 C206.177423,58.688419 208.280332,58.696654 209.238905,58.6029809 L209.238905,51.3273606 C208.874565,51.3273606 206.172291,51.4230925 205.904424,51.4230925 C199.468436,51.4230925 195.139461,46.4450365 195.139461,39.0366269 L195.139461,34.2860627 C195.139461,26.8786825 199.468436,21.9026853 205.904424,21.9026853 C208.817092,21.9026853 213.213803,22.1394414 214.730689,22.4606063 L215.212028,22.5645732 L215.223317,58.696654 L224.227133,58.696654 L224.227133,18.237082 C224.227133,17.4660804 224.227133,17.1696205 222.592221,16.7352243" id="Fill-4"></path>
                            <path d="M232.908687,0.225083785 L241.917634,0.225083785 L241.917634,58.696654 L232.908687,58.696654 L232.908687,0.225083785 Z" id="Fill-5"></path>
                            <path d="M166.647049,6.00708139 L166.647049,15.3517448 L181.3202,15.3517448 L181.3202,22.3535514 L166.647049,22.3535514 L166.647049,47.6092592 C166.647049,51.5713224 169.170745,51.6783774 172.827487,51.6783774 L181.325332,51.6783774 L181.325332,58.688419 L169.827583,58.688419 C161.324607,58.688419 157.533419,55.2750125 157.533419,47.6092592 L157.533419,7.26188913 L166.647049,6.00708139" id="Fill-6"></path>
                            <path d="M16.4384036,0.251847527 L0.499812859,0.254935651 L0.499812859,58.688419 L10.3934391,58.688419 L10.3934391,9.07461794 L15.3392259,9.07461794 C16.495877,9.08491169 17.5755549,9.12299855 18.5526018,9.14358605 C26.6430017,9.30210975 30.6712676,11.780844 30.6712676,18.0847346 C30.6712676,18.3389901 30.6856359,18.5026607 30.6856359,18.76721 C30.6856359,24.5955294 27.4917599,28.4639195 18.6880747,28.4639195 C17.8465006,28.4639195 16.5759291,28.2796614 16.5759291,28.2796614 L16.5759291,36.3623114 C16.5759291,36.3623114 17.8341849,36.3520177 18.6952588,36.3520177 C31.3383689,36.3520177 40.2682902,31.3688149 40.2682902,18.8567656 C40.2682902,18.6055981 40.250843,18.3492838 40.250843,18.1012045 C40.250843,5.13314228 30.5347684,0.251847527 16.4384036,0.251847527" id="Fill-7"></path>
                            <path d="M250.054218,55.028992 C250.704899,55.0166395 251.030239,54.7242971 251.030239,54.240491 C251.030239,53.7227155 250.704899,53.4869887 250.02035,53.4869887 L249.347091,53.4869887 L249.347091,55.0506088 L250.054218,55.028992 L250.054218,55.028992 Z M249.359407,56.9642164 L248.796989,56.9642164 L248.796989,52.9805363 L250.076797,52.9805363 C251.075397,52.9805363 251.590604,53.4416962 251.590604,54.207551 C251.590604,54.7922358 251.27758,55.1741338 250.806503,55.3542744 L251.804076,56.9642164 L251.154422,56.9642164 L250.245112,55.4901518 L249.359407,55.5344149 L249.359407,56.9642164 L249.359407,56.9642164 Z" id="Fill-8"></path>
                            <path d="M250.121955,58.0996167 C248.426491,58.0996167 247.049183,56.7171665 247.049183,55.0176688 C247.049183,53.311995 248.426491,51.9233685 250.121955,51.9233685 C251.816392,51.9233685 253.194726,53.311995 253.194726,55.0176688 C253.194726,56.7171665 251.816392,58.0996167 250.121955,58.0996167 L250.121955,58.0996167 Z M250.121955,51.3263312 C248.090888,51.3263312 246.452897,52.9805363 246.452897,55.0166395 C246.452897,57.0424489 248.090888,58.696654 250.121955,58.696654 C252.153022,58.696654 253.791012,57.0424489 253.791012,55.0166395 C253.791012,52.9805363 252.153022,51.3263312 250.121955,51.3263312 L250.121955,51.3263312 Z" id="Fill-9"></path>
                        </g>
                    </g>
                </g>
            </g>
        </g>
    </g>
</svg>

<svg width="254" height="60" viewBox="0 0 254 60" xmlns="http://www.w3.org/2000/svg"><title>Pivotal_Black_RGB</title><g fill="#FFF" fill-rule="evenodd"><path d="M47.664 15.352h9.012v43.345h-9.012V15.352zm.01-15.127h8.99V8.95h-8.99V.224zM108.664 15.352l-12.55 37.44c-2.157 6.124-6.003 6.91-9.116 6.91-4.624 0-7.408-2.13-9.048-6.897L67.49 21.71h-4.14v-6.358h10.798l10.78 34.805c.47 1.485.762 2.376 2.07 2.376 1.358 0 1.626-.904 2.064-2.376l11-34.805h8.602M130.854 52.568c6.976 0 11.3-5.29 11.3-11.636v-6.81c0-6.35-4.286-11.642-11.3-11.642-7.386 0-11.292 5.29-11.292 11.642v6.81c0 6.345 4.077 11.636 11.292 11.636m0-37.216c11.662 0 19.794 7.715 19.794 18.77v6.81c0 11.04-8.132 18.77-19.794 18.77-11.656 0-19.803-7.73-19.803-18.77v-6.81c0-11.055 8.148-18.77 19.804-18.77M222.592 16.735c-4.49-1.16-11.506-2-16.688-2-11.832 0-19.174 7.487-19.174 19.55v4.752c0 12.054 7.342 19.65 19.174 19.65.273 0 2.376.01 3.335-.084v-7.276c-.365 0-3.068.096-3.336.096-6.436 0-10.765-4.978-10.765-12.386v-4.75c0-7.408 4.328-12.384 10.764-12.384 2.913 0 7.31.236 8.827.558l.482.105.01 36.132h9.005v-40.46c0-.77 0-1.067-1.635-1.502M232.91.225h9.008v58.472h-9.01V.225zM166.647 6.007v9.345h14.673v7.002h-14.673V47.61c0 3.96 2.524 4.068 6.18 4.068h8.498v7.01h-11.497c-8.503 0-12.295-3.413-12.295-11.08V7.263l9.114-1.255M16.438.252L.5.255v58.433h9.893V9.075h4.946c1.156.01 2.236.048 3.213.07 8.09.157 12.118 2.636 12.118 8.94 0 .254.016.418.016.682 0 5.83-3.194 9.697-11.998 9.697-.84 0-2.112-.184-2.112-.184v8.082s1.258-.01 2.12-.01c12.642 0 21.572-4.983 21.572-17.495 0-.25-.017-.508-.017-.756C40.25 5.134 30.536.253 16.44.253M250.054 55.03c.65-.013.976-.306.976-.79 0-.517-.325-.753-1.01-.753h-.673v1.564l.707-.02zm-.695 1.934h-.563V52.98h1.28c.998 0 1.514.462 1.514 1.228 0 .584-.312.966-.783 1.146l.997 1.61h-.65l-.91-1.474-.885.044v1.43z"/><path d="M250.122 58.1a3.08 3.08 0 0 1-3.073-3.082c0-1.706 1.376-3.095 3.072-3.095 1.694 0 3.073 1.39 3.073 3.095a3.08 3.08 0 0 1-3.073 3.082zm0-6.774c-2.03 0-3.67 1.655-3.67 3.69a3.676 3.676 0 0 0 3.67 3.68c2.03 0 3.67-1.654 3.67-3.68 0-2.035-1.64-3.69-3.67-3.69z"/></g></svg>
